format-list-checks.svg

<svg fill="currentColor" viewBox="0 0 24 24"><path d="M3 5h6v6H3zm2 2v2h2V7zm6 0h10v2H11zm0 8h10v2H11zm-6 5-3.5-3.5 1.41-1.41L5 17.17l4.59-4.58L11 14z"/></svg>

<svg  viewBox="0 0 24 24" fill="currentColor"><path  d="M3,5H9V11H3V5M5,7V9H7V7H5M11,7H21V9H11V7M11,15H21V17H11V15M5,20L1.5,16.5L2.91,15.09L5,17.17L9.59,12.59L11,14L5,20Z"/></svg>
